X: 66
T: Piano Sonata No. 16 in B\b major, K 576, mvmt. 3
C: M\"uler August Eberhard
%%abc-version 2.0
%%abcx-abcm2ps-target-version 5.9.1 (29 Sep 2008)
%%abc-creator hum2abc beta
%%abcx-conversion-date 2021/01/14 17:01:31
%%abc-copyright 2018 Craig Stuart Sapp
%%abc-edited-by Craig Stuart Sapp
%%abc-edited-by Craig Stuart Sapp
%%abcx-initial-encoding-date 2009/10/08
%%gracespace 0 6 6
%%humdrum-veritas 3689371556
%%humdrum-veritas-data 2130430268
%%linebreak <none>
%%barnumbers 0
L: 1/8
M: C
N: Derived from sonata16-3.krn
Q: "Allegretto" 1/4=120
%%staves {1 2}
V: 1 clef=treble
V: 2 clef=bass
K: Bb
[V:1] B [I:setbarnb 1]| 
[V:2] z | 
[V:1] d z e z=e2f.d | 
[V:2] B,FCF DFB,F | 
[V:1] {/d//} .c.=B.c.df2_e.A | 
[V:2] A,FB,F CFEF | 
[V:1] ._BB2=B .cc2^c | 
[V:2] DFDF A,FA,F | 
[V:1] .d.=c.d.[ce][B2d2][Ac]B/c/ | 
[V:2] B,A,B,E,F,2z2 | 
[V:1] d z e z=e2f.d | 
[V:2] B,FCF DFB,F | 
[V:1] {/d//} c=B.c.df2_e.A | 
[V:2] A,FB,F CFEF | 
[V:1] _Bb.b.b cg.g.g | 
[V:2] D2z2[K:clef=treble][E2G2]z2[K:clef=bass] | 
[V:1] BB !mordent!c/B/c/d/B2z B/d/ | 
[V:2] D2E2D2z2 & F,4B,2x2 | 
[V:1] f z =e z c'_e2d- | 
[V:2] F,A,G,B, A,CB,F[K:clef=treble] | 
[V:1] d=Bcg _B3/c//B// AA/c/ | 
[V:2] E2>=E2F2z2[K:clef=bass] | 
[V:1] f z =e z c'_e2d | 
[V:2] F,A,G,B, A,CB,F[K:clef=treble] | 
[V:1] z bg=e fa.c'.c' | 
[V:2] [G4B4][F2A2]z2 | 
[V:1] z c'/b/ a/g/f/=e/ f/c/f/a/ .c'.c' | 
[V:2] [G4B4][F2A2]z2 | 
[V:1] z/ a/c'/b/ a/g/f/=e/ f/^f/a/g/ =f/_e/d/^c/ | 
[V:2] [G4B4][F2A2]z2[K:clef=bass] | 
[V:1] d z e z=e2f.d | 
[V:2] B,FCF DFB,F | 
[V:1] {/d//} .c.=B.c.df2_e.A | 
[V:2] A,FB,F CFEF | 
[V:1] ._BB2=B cc2^c | 
[V:2] DFDF A,FA,F | 
[V:1] .d.=c.d.[ce][B2d2][Ac]B/c/ | 
[V:2] B,A,B,E,F,2z2 | 
[V:1] d z e z=e2f.d | 
[V:2] B,FCF DFB,F | 
[V:1] {/d//} c=B.c.df2_eA | 
[V:2] A,FB,F CFEF | 
[V:1] _Bb.b.b cg.g.g | 
[V:2] D2z2[K:clef=treble][E2G2]z2[K:clef=bass] | 
[V:1] BB !mordent!c/B/c/d/B2z ]|:  
[V:2] D2E2D2z & F,4B,2x ]|:  
[V:1] F [I:setbarnb 23]| 
[V:2] z | 
[V:1] .[Fd][F2d2][DB] .[Ge][G2e2][Ec] | 
[V:2] B,,B,B,B, B,,B,B,B, | 
[V:1] GBAc B/A/B/c/ .B.B | 
[V:2] E2C2D2z2 & B,4B,2x2 | 
[V:1] .[df][d2f2][Bd] .[eg][e2g2][ce] | 
[V:2] B,,B,B,B, B,,B,B,B,[K:clef=treble] | 
[V:1] Bdce d/c/d/e/ .dd | 
[V:2] G2A2B2z2 & B,4B,2x2 | 
[V:1] d'd'bg^f2g.d' | 
[V:2] ^FAGB AcBd | 
[V:1] =b/c'/d'/c'/ _b/a/g/f/=e2f.c' | 
[V:2] =EG=FA GBAc | 
[V:1] f'/=e'/d'/c'/ b/a/g/f/ d'/c'/b/a/ g/f/=e/d/ | 
[V:2] [A,2F2]z2[B,2F2G2]z2 | 
[V:1] c/f/a/c'/ c'/b/a/g/g2f :|]|:  
[V:2] A2B2B2A[K:clef=bass] & C4F2-F :|]|:  
[V:1] F [I:setbarnb 31]| 
[V:2] z | 
[V:1] .[df][d2f2][f_a] .[=Bd][B2d2][df] | 
[V:2] D,,D,D,D, G,,G,G,G, | 
[V:1] .[ce][c2e2][eg] .[Ac][A2c2][ce] | 
[V:2] C,,C,C,C, F,,F,F,F, | 
[V:1] e/_d/c/B/ A/B/c/B/ e/d/c/B/ A/B/c/B/ | 
[V:2] B,_DB,_A, _G,B,G,F, | 
[V:1] .bb2[B=e][B2g2][Af] F | 
[V:2] =E, z[K:clef=treble][C2G2]F3z[K:clef=bass] | 
[V:1] .[Fd][F2d2][DB] .[G_e][G2e2][Ec] | 
[V:2] B,,B,B,B, B,,B,B,B, | 
[V:1] GBAc B/A/B/c/ .B.B | 
[V:2] E2C2D2z2 & B,4B,2x2 | 
[V:1] .[df][d2f2][Bd] .[eg][e2g2][ce] | 
[V:2] B,,B,B,B, B,,B,B,B,[K:clef=treble] | 
[V:1] Bdce d/c/d/e/ .dB | 
[V:2] G2A2B2z2 & B,4B,2x2 | 
[V:1] ggec=B2c.g | 
[V:2] =B,DCE DFEG | 
[V:1] =e/f/g/f/ _e/d/c/_B/A2B.f | 
[V:2] A,C_B,D CEDF[K:clef=bass] | 
[V:1] b/a/g/f/ e/d/c/B/ g/f/e/d/ c/B/A/G/ | 
[V:2] [D,2F,2B,2]z2[E,2B,2C2]z2 | 
[V:1] F/B/d/f/ f/e/d/c/c2B :|]  
[V:2] D2E2E2D & F,4B,2-B, :|]  
[V:1] B/c/ [I:setbarnb 43]| 
[V:2] z | 
[V:1] d2z d/e/f2z f/g/ | 
[V:2] z [B,D][B,D] z z [B,D][B,D] z | 
[V:1] _afdB =AB_AF ]|:  
[V:2] z8 ]|:  
[V:1] EEEE cccc | 
[V:2] z2[G,2B,2]z2[_A,2E2] | 
[V:1] FFBB _AG.F.E | 
[V:2] z2[D,2F,2][E,B,] zz2 | 
[V:1] .g.g.^f.f .=e._e.d._d | 
[V:2] x6_B,2- & z .E.D.=B, .C.=A,_B,=E, | 
[V:1] .c.c.f.fB2z2 :|]|:  
[V:2] B,2A,2x4 & F,4.B,.F,.D,.B,, :|]|:  
[V:1] z B_d=e gdcB | 
[V:2] _DDDD =E,E,E,E, | 
[V:1] =A_A=d_e f_cBA | 
[V:2] CCCC =D,D,D,D, | 
[V:1] G_GFB E=AD[E_G] | 
[V:2] .E,.E,.D,._D, .C,._C,.B,,.=A,, | 
[V:1] [DF][E_G][DF][EG] [DF][E=G][F_A][DF] | 
[V:2] B,,A,,B,,A,,B,,2z2 | 
[V:1] EEEE cccc | 
[V:2] z2[G,2B,2]z2[_A,2E2] | 
[V:1] FFBB _AG.F.E | 
[V:2] z2[D,2F,2][E,B,] zz2[K:clef=treble] | 
[V:1] .c.c'.=b._b .=a._a.g._g | 
[V:2] z ._A.G.=E .F.=D_E2- & x6_E=A, | 
[V:1] .f.f.b.be2z2 :|]  
[V:2] E2D2[K:clef=bass].E.B,.G,.E, & B,4x4 :|]  
[V:1] z2z =B cde=e | 
[V:2] [K:clef=treble].G,G^F=F EDC_B, | 
[V:1] ff'=e'_e' d'c'b_a | 
[V:2] A,2z A Bcdc | 
[V:1] g.e'.f.d' .e.c'.d.b | 
[V:2] .=B.c.A._B .G.A.^F.G | 
[V:1] z bg=e fa.c'.c' | 
[V:2] [G4B4][=F2A2]z2 | 
[V:1] z c'/b/ a/g/f/=e/ f/c/f/a/ .c'.c' | 
[V:2] [G4B4][F2A2]z2 | 
[V:1] z/ a/c'/b/ a/g/f/=e/ f/^f/a/g/ =f/_e/d/^c/ | 
[V:2] [G4B4][F2A2]z2[K:clef=bass] | 
[V:1] d z e z=e2f.d | 
[V:2] B,FCF DFB,F | 
[V:1] {/d//} .c.=B.c.df2_e.A | 
[V:2] A,FB,F CFEF | 
[V:1] ._BB2=B .cc2^c | 
[V:2] DFDF A,FA,F | 
[V:1] .d.=c.d.[ce][B2d2][Ac]B/c/ | 
[V:2] B,A,B,E,F,2z2 | 
[V:1] d z e z=e2f.d | 
[V:2] B,FCF DFB,F | 
[V:1] {/d//} c=B.c.df2_e.A | 
[V:2] A,FB,F CFEF | 
[V:1] _Bb.b.b cg.g.g | 
[V:2] D2z2[K:clef=treble][E2G2]z2[K:clef=bass] | 
[V:1] BB !mordent!c/B/c/d/B2z B | 
[V:2] D2E2D2z2 & F,4B,2x2 | 
[V:1] .[gb][g2b2][eg] .[df][d2f2][Bd] | 
[V:2] B,,B,B,B, B,,B,B,B, | 
[V:1] .[Ac][A2c2][ce] [A^c][Bd] [Bd] B | 
[V:2] F,,F,F,F, B,,B,B,B, | 
[V:1] .[gb][g2b2][eg] .[df][d2f2][Bd] | 
[V:2] B,,B,B,B, B,,B,B,B, | 
[V:1] .[Ac][A2c2][ce] [A^c][Bd] [Bd] .B | 
[V:2] F,,F,F,F, B,,B,B, z | 
[V:1] .b.b.b.b .=e.e.e.e | 
[V:2] z2G,3A,/B,/ CB,- | 
[V:1] .c'.c'.c'.c' ._e.e.e.e | 
[V:2] B,A, z F,, ^F,,G,,_A,,=A,, | 
[V:1] .d.b.a._a .g._g.f.=e | 
[V:2] B,,[K:clef=treble] .B,.C.D .E.E.F._G | 
[V:1] x2cfx4 & fdA2[c2_e2][Bd] z | 
[V:2] F2F2^F2G[K:clef=bass] .G,, | 
[V:1] z ^fgb _d'3/e'//d'// c'b | 
[V:2] .B,.B,.B,.B, .=E,.E,.E,.E, | 
[V:1] .=aAce _g3/_a//g// fe | 
[V:2] ._G,.G,.G,.G, .A,,.A,,.A,,.A,, | 
[V:1] .d.B.c.d .e.=e.f.^f | 
[V:2] .B,,.B,.A,._A, .G,._G,.F,.D, | 
[V:1] .g2.[_d2g2b2]z .g.a.b | 
[V:2] .E,2.[=E,,2=E,2]z4 | 
[V:1] b/c'/=d'/e'/ f'/e'/d'/c'/ b/a/g/f/ e/d/c/B/ | 
[V:2] F,=DB,D F,DB,D | 
[V:1] !trill!c8{/Bc} | 
[V:2] F,EA,E F,EA,E | 
[V:1] B2z2z [df][ce][Bd] | 
[V:2] B,,B,B,B,B,2z2 | 
[V:1] [e2g2]z2z [eg][fa][gb] | 
[V:2] B,,B,B,B,B,2z2 | 
[V:1] [d2f2]z2z [Bd][ce][df] | 
[V:2] B,,B,B,B,B,2z2 | 
[V:1] [c2e2]z2z F[=EG][_EA] | 
[V:2] F,,F,F,F,F,2z2 | 
[V:1] [DB] z [Fd] z [DB] z z |]  
[V:2] B,, z B, z B,, z z |]  


